public/img/filter/main.svg

<svg width="100" height="100" viewBox="0 0 100 100" fill="none" xmlns="http://www.w3.org/2000/svg">
<rect x="1" y="1" width="98" height="98" rx="14" stroke="#234cad" stroke-width="2"/>
<path d="M18 55.6083C18 53.9273 19.368 52.5593 21.049 52.5593H25.1143C26.7953 52.5593 28.1632 53.9273 28.1632 55.6083C28.1632 56.9315 27.3106 58.0495 26.1306 58.4702V58.6572C26.1306 59.2182 26.5869 59.6736 27.1469 59.6736H29.1796V53.4313C27.4315 52.977 26.1306 51.3997 26.1306 49.5103C26.1306 47.4756 27.6378 45.8018 29.5912 45.506C28.2202 41.8056 30.638 35.4952 35.7989 29.3384L34.1037 27.6431C33.691 27.8393 33.2469 27.948 32.7987 27.948C32.0171 27.948 31.2366 27.6513 30.6421 27.0567C29.454 25.8676 29.454 23.9335 30.6421 22.7445L34.9543 18.4322C36.1434 17.2431 38.0775 17.2451 39.2666 18.4322C40.2016 19.3682 40.3886 20.7606 39.852 21.8928L41.5472 23.588C48.7682 17.5368 56.2066 15.2521 59.3877 18.4342C59.7851 18.8316 59.7851 19.4739 59.3877 19.8713L33.814 45.445H68.8162C71.0582 45.445 72.8814 47.2683 72.8814 49.5103C72.8814 51.3997 71.5806 52.977 69.8325 53.4313V59.6736H71.8651C72.4251 59.6736 72.8814 59.2182 72.8814 58.6572V58.4702C71.7015 58.0495 70.8488 56.9315 70.8488 55.6083C70.8488 53.9273 72.2168 52.5593 73.8978 52.5593H77.9631C79.6441 52.5593 81.012 53.9273 81.012 55.6083C81.012 56.9315 80.1593 58.0495 78.9794 58.4702V59.6736C78.9794 63.0366 76.2445 65.7715 72.8814 65.7715H69.8325V72.8857C69.8325 76.8077 66.6412 80 62.7182 80H36.2938C32.3708 80 29.1796 76.8077 29.1796 72.8857V65.7715H26.1306C22.7676 65.7715 20.0327 63.0366 20.0327 59.6736V58.4702C18.8527 58.0495 18 56.9315 18 55.6083ZM37.8285 19.8713C37.4331 19.4749 36.7878 19.4739 36.3904 19.8713L32.0791 24.1836C31.6828 24.5799 31.6828 25.2243 32.0791 25.6206C32.4765 26.018 33.1219 26.017 33.5172 25.6206L37.8285 21.3084C38.2248 20.912 38.2248 20.2677 37.8285 19.8713ZM38.547 23.465L35.6718 26.3402L37.1414 27.8088C37.5937 27.3159 38.0612 26.826 38.547 26.3402C39.0328 25.8544 39.5237 25.3869 40.0156 24.9346L38.547 23.465ZM39.9841 27.7763C34.373 33.3874 29.9113 41.3228 31.4968 44.8871L57.0959 19.289C53.5296 17.7045 45.5952 22.1651 39.9841 27.7763V27.7763ZM70.8488 49.5103C70.8488 48.3893 69.9372 47.4777 68.8162 47.4777H30.1959C29.0749 47.4777 28.1632 48.3893 28.1632 49.5103C28.1632 50.6313 29.0749 51.543 30.1959 51.543H68.8162C69.9372 51.543 70.8488 50.6313 70.8488 49.5103ZM77.9631 54.5919H73.8978C73.3378 54.5919 72.8814 55.0473 72.8814 55.6083C72.8814 56.1693 73.3378 56.6246 73.8978 56.6246H77.9631C78.523 56.6246 78.9794 56.1693 78.9794 55.6083C78.9794 55.0473 78.523 54.5919 77.9631 54.5919ZM72.8814 63.7388C75.1235 63.7388 76.9467 61.9156 76.9467 59.6736V58.6572H74.9141C74.9141 60.3382 73.5461 61.7062 71.8651 61.7062H69.8325V63.7388H72.8814ZM36.2938 77.9674H62.7182C65.5202 77.9674 67.7998 75.6877 67.7998 72.8857V53.5756H31.2122V72.8857C31.2122 75.6877 33.4918 77.9674 36.2938 77.9674ZM26.1306 63.7388H29.1796V61.7062H27.1469C25.4659 61.7062 24.098 60.3382 24.098 58.6572H22.0653V59.6736C22.0653 61.9156 23.8886 63.7388 26.1306 63.7388ZM21.049 56.6246H25.1143C25.6743 56.6246 26.1306 56.1693 26.1306 55.6083C26.1306 55.0473 25.6743 54.5919 25.1143 54.5919H21.049C20.489 54.5919 20.0327 55.0473 20.0327 55.6083C20.0327 56.1693 20.489 56.6246 21.049 56.6246Z" fill="#234cad"/>
<path d="M34.2612 72.8857C34.2612 74.0067 35.1728 74.9184 36.2938 74.9184V76.951C34.0518 76.951 32.2285 75.1278 32.2285 72.8857V58.6572H34.2612V72.8857Z" fill="#234cad"/>
<path d="M64.5151 36.9546C64.011 37.4587 63.7345 38.1275 63.7345 38.8389C63.7345 39.5503 64.011 40.2191 64.5151 40.7232L66.4857 42.6938L65.0486 44.1309L63.078 42.1602C62.1897 41.273 61.7019 40.093 61.7019 38.8389C61.7019 37.5848 62.1897 36.4048 63.078 35.5176L63.9713 34.6242C64.4744 34.1211 64.7508 33.4524 64.7508 32.741C64.7508 32.0295 64.4744 31.3608 63.9703 30.8567L61.9997 28.8861L63.4367 27.449L65.4074 29.4196C66.2957 30.3069 66.7835 31.4868 66.7835 32.741C66.7835 33.9951 66.2957 35.1751 65.4074 36.0623L64.5151 36.9546Z" fill="#234cad"/>
<path d="M52.8528 28.8861L54.2899 27.449L56.2605 29.4196C57.1488 30.3069 57.6366 31.4868 57.6366 32.741C57.6366 33.9951 57.1488 35.1751 56.2605 36.0623L55.3672 36.9557C54.8641 37.4587 54.5876 38.1275 54.5876 38.8389C54.5876 39.5503 54.8641 40.2191 55.3682 40.7232L57.3388 42.6938L55.9017 44.1309L53.9311 42.1602C53.0428 41.273 52.555 40.093 52.555 38.8389C52.555 37.5848 53.0428 36.4048 53.9311 35.5176L54.8244 34.6242C55.3275 34.1211 55.604 33.4524 55.604 32.741C55.604 32.0295 55.3275 31.3608 54.8234 30.8567L52.8528 28.8861Z" fill="#234cad"/>
</svg>

<svg width="60" height="60" viewBox="0 0 100 100" fill="none" xmlns="http://www.w3.org/2000/svg">
  <rect x="1" y="1" width="98" height="98" rx="14" stroke="#234cad" stroke-width="2"/>
  <path d="M18 55.6a3.05 3.05 0 013.05-3.04h4.06a3.04 3.04 0 011.02 5.91v.19c0 .56.46 1.01 1.02 1.01h2.03v-6.24a4.06 4.06 0 01-3.05-3.92c0-2.03 1.5-3.7 3.46-4-1.37-3.7 1.05-10.01 6.2-16.17l-1.69-1.7a3.04 3.04 0 01-3.46-.58 3.05 3.05 0 010-4.32l4.31-4.3a3.05 3.05 0 014.9 3.46l1.7 1.69c7.22-6.05 14.66-8.34 17.84-5.16.4.4.4 1.04 0 1.44L33.8 45.44h35a4.06 4.06 0 011.02 7.99v6.24h2.04c.56 0 1.01-.45 1.01-1.01v-.19a3.04 3.04 0 011.02-5.91h4.06a3.04 3.04 0 011.02 5.91v1.2a6.1 6.1 0 01-6.1 6.1h-3.05v7.12c0 3.92-3.19 7.11-7.11 7.11H36.29a7.12 7.12 0 01-7.11-7.11v-7.12h-3.05a6.1 6.1 0 01-6.1-6.1v-1.2A3.04 3.04 0 0118 55.61zm19.83-35.73c-.4-.4-1.04-.4-1.44 0l-4.31 4.31a1.02 1.02 0 001.44 1.44l4.3-4.31c.4-.4.4-1.04 0-1.44zm.72 3.6l-2.88 2.87 1.47 1.47a47.32 47.32 0 012.88-2.88l-1.47-1.46zm1.43 4.3c-5.6 5.62-10.07 13.55-8.48 17.12l25.6-25.6c-3.57-1.59-11.5 2.88-17.12 8.49zm30.87 21.74c0-1.12-.91-2.03-2.03-2.03H30.2a2.03 2.03 0 000 4.06h38.62c1.12 0 2.03-.9 2.03-2.03zm7.11 5.08H73.9a1.02 1.02 0 000 2.03h4.06a1.02 1.02 0 000-2.03zm-5.08 9.15a4.07 4.07 0 004.07-4.07v-1.01H74.9a3.05 3.05 0 01-3.04 3.05h-2.04v2.03h3.05zM36.3 77.97h26.43c2.8 0 5.08-2.28 5.08-5.08V53.58H31.21v19.3c0 2.8 2.28 5.09 5.08 5.09zM26.13 63.74h3.05V61.7h-2.03a3.05 3.05 0 01-3.05-3.05h-2.03v1.01a4.07 4.07 0 004.06 4.07zm-5.08-7.12h4.06a1.02 1.02 0 000-2.03h-4.06a1.02 1.02 0 000 2.03z" fill="#234cad"/>
  <path d="M34.26 72.89c0 1.12.91 2.03 2.03 2.03v2.03a4.07 4.07 0 01-4.06-4.06V58.66h2.03v14.23zM64.52 36.95a2.65 2.65 0 000 3.77l1.97 1.97-1.44 1.44-1.97-1.97a4.66 4.66 0 010-6.64l.9-.9a2.65 2.65 0 00-.01-3.76L62 28.89l1.44-1.44 1.97 1.97a4.66 4.66 0 010 6.64l-.9.9zM52.85 28.89l1.44-1.44 1.97 1.97a4.66 4.66 0 010 6.64l-.9.9a2.64 2.64 0 000 3.76l1.98 1.97-1.44 1.44-1.97-1.97a4.66 4.66 0 010-6.64l.9-.9a2.65 2.65 0 000-3.76l-1.98-1.97z" fill="#234cad"/>
</svg>
